build/system/UserRoleToSolid.svg

<svg xmlns="http://www.w3.org/2000/svg" fill="none" viewBox="0 0 24 24" focusable="false"><path d="M0 0H24V24H0z"/><path fill="#74767B" fill-rule="evenodd" d="M7.56456 7.96802C7.26365 5.32002 9.33497 3 12 3C14.6651 3 16.7364 5.32002 16.4355 7.96803L16.1734 10.274C15.9322 12.3966 14.1363 14 12 14C9.86377 14 8.06781 12.3966 7.8266 10.274L7.56456 7.96802ZM17.5 22C19.9853 22 22 19.9853 22 17.5C22 15.0147 19.9853 13 17.5 13C15.0147 13 13 15.0147 13 17.5C13 19.9853 15.0147 22 17.5 22ZM17.3637 20.354C17.5437 20.354 17.7137 20.284 17.8437 20.144C18.0837 19.874 18.0637 19.464 17.8037 19.224L16.6084 18.0766L19.9868 18.0766C20.3458 18.0766 20.6368 17.7856 20.6368 17.4266C20.6368 17.0676 20.3458 16.7766 19.9868 16.7766L16.6155 16.7766L17.8037 15.6393C18.0737 15.3993 18.0837 14.9893 17.8437 14.7193C17.6037 14.4593 17.1937 14.4393 16.9237 14.6793L14.576 16.9066C14.266 17.1866 14.266 17.6666 14.576 17.9466L16.9237 20.184C17.0537 20.304 17.2037 20.354 17.3637 20.354ZM11.8848 16.042C12.0139 15.5434 11.6692 15 11.1541 15L10.1464 15C7.33419 15 4.89931 16.9532 4.28926 19.6984L4.18932 20.1481C4.09217 20.5853 4.42482 21 4.87265 21L11.4658 21C12.0443 21 12.3958 20.317 12.1677 19.7854C11.8667 19.0841 11.7 18.3115 11.7 17.5C11.7 16.9964 11.7642 16.5078 11.8848 16.042Z"/></svg>

<svg xmlns="http://www.w3.org/2000/svg" fill="none" viewBox="0 0 24 24" focusable="false"><path fill="#74767B" fill-rule="evenodd" d="M12 3C9.33 3 7.26 5.32 7.56 7.96l.26 2.31A4.21 4.21 0 0 0 12 14c2.13 0 3.93-1.61 4.17-3.73l.26-2.31A4.46 4.46 0 0 0 12 3m5.5 19c2.48 0 4.5-2.02 4.5-4.5a4.5 4.5 0 1 0-4.5 4.5m-.14-1.65c.18 0 .35-.07.48-.21.24-.27.22-.68-.04-.92l-1.2-1.15h3.38c.36 0 .65-.29.65-.65s-.29-.65-.65-.65h-3.37l1.19-1.14a.65.65 0 0 0 .04-.92.66.66 0 0 0-.92-.04l-2.35 2.23c-.31.28-.31.76 0 1.04l2.35 2.24c.13.12.28.17.44.17m-5.48-4.31c.13-.5-.22-1.04-.73-1.04h-1.01c-2.81 0-5.25 1.95-5.86 4.69l-.1.45c-.09.44.24.86.69.86h6.59c.58 0 .93-.69.7-1.22-.3-.7-.46-1.47-.46-2.28 0-.51.06-1 .18-1.46"/></svg>
